src/landing/containers/MainScreen/components/Advantages/assets/wallet.svg

<svg width="120" height="120" viewBox="0 0 120 120" fill="none" xmlns="http://www.w3.org/2000/svg">
    <path d="M32 38L80.9618 26.1147C84.0597 25.4516 87 27.747 87 30.8331V38" fill="url(#paint0_linear)"/>
    <path d="M65.8067 70.1869V60.7872C65.8067 59.0782 67.2227 57.6798 68.9534 57.6798H92.9738V43.9557C92.9738 40.6671 90.2728 38 86.9425 38H32.0313C28.701 38 26 40.6671 26 43.9557V87.0443C26 90.3329 28.701 93 32.0313 93H86.9687C90.299 93 93 90.3329 93 87.0443V73.2943H68.9796C67.2227 73.2943 65.8067 71.896 65.8067 70.1869Z" fill="url(#paint1_linear)"/>
    <path d="M73 69C74.6569 69 76 67.6569 76 66C76 64.3431 74.6569 63 73 63C71.3431 63 70 64.3431 70 66C70 67.6569 71.3431 69 73 69Z" fill="url(#paint2_linear)"/>
    <defs>
        <linearGradient id="paint0_linear" x1="87" y1="26" x2="87" y2="38" gradientUnits="userSpaceOnUse">
            <stop stop-color="#FFA526"/>
            <stop offset="1" stop-color="#FF860D"/>
        </linearGradient>
        <linearGradient id="paint1_linear" x1="93" y1="38" x2="93" y2="93" gradientUnits="userSpaceOnUse">
            <stop stop-color="#4070FF"/>
            <stop offset="1" stop-color="#365FD9"/>
        </linearGradient>
        <linearGradient id="paint2_linear" x1="76" y1="63" x2="76" y2="69" gradientUnits="userSpaceOnUse">
            <stop stop-color="#4070FF"/>
            <stop offset="1" stop-color="#365FD9"/>
        </linearGradient>
    </defs>
</svg>

<svg width="120" height="120" fill="none" xmlns="http://www.w3.org/2000/svg"><path d="M32 38l48.962-11.885C84.06 25.452 87 27.747 87 30.833V38" fill="url(#paint0_linear)"/><path d="M65.807 70.187v-9.4c0-1.709 1.416-3.107 3.146-3.107h24.02V43.956c0-3.289-2.7-5.956-6.03-5.956H32.03C28.701 38 26 40.667 26 43.956v43.088C26 90.333 28.701 93 32.031 93H86.97c3.329 0 6.03-2.667 6.03-5.956v-13.75H68.98c-1.757 0-3.173-1.398-3.173-3.107z" fill="url(#paint1_linear)"/><path d="M73 69a3 3 0 100-6 3 3 0 000 6z" fill="url(#paint2_linear)"/><defs><linearGradient id="paint0_linear" x1="87" y1="26" x2="87" y2="38" gradientUnits="userSpaceOnUse"><stop stop-color="#FFA526"/><stop offset="1" stop-color="#FF860D"/></linearGradient><linearGradient id="paint1_linear" x1="93" y1="38" x2="93" y2="93" gradientUnits="userSpaceOnUse"><stop stop-color="#4070FF"/><stop offset="1" stop-color="#365FD9"/></linearGradient><linearGradient id="paint2_linear" x1="76" y1="63" x2="76" y2="69" gradientUnits="userSpaceOnUse"><stop stop-color="#4070FF"/><stop offset="1" stop-color="#365FD9"/></linearGradient></defs></svg>
